public/assets/rescript.svg

<?xml version="1.0" encoding="UTF-8" standalone="no" ?>
<!DOCTYPE svg PUBLIC "-//W3C//DTD SVG 1.1//EN" "http://www.w3.org/Graphics/SVG/1.1/DTD/svg11.dtd">
<svg xmlns="http://www.w3.org/2000/svg" xmlns:xlink="http://www.w3.org/1999/xlink" version="1.1" width="128" height="128" viewBox="0 0 128 128" xml:space="preserve">
<desc>Created with Fabric.js 3.6.3</desc>
<defs>
</defs>
<g transform="matrix(1 0 0 1 259.5 63.88)"  >
<path style="stroke: none; stroke-width: 1; stroke-dasharray: none; stroke-linecap: butt; stroke-dashoffset: 0; stroke-linejoin: miter; stroke-miterlimit: 4; fill: rgb(212,65,64); fill-rule: nonzero; opacity: 1;"  transform=" translate(-256, -60.38)" d="M 83.9625559 0.000233290317 C 84.168944 0.000320955304 84.3739398 0.000437841954 84.5775569 0.00059369082 L 85.7828199 0.00207425505 C 99.4555243 0.0262697916 106.690859 0.328713998 111.880758 4.10926658 C 113.705464 5.43276749 115.312645 7.03269316 116.644388 8.85139244 C 120.641557 14.3451314 120.746745 22.128042 120.75424 37.4293194 L 120.754445 83.9625559 C 120.748132 98.8224982 120.590296 106.465212 116.644388 111.880758 C 115.307369 113.701103 113.701103 115.307369 111.880758 116.644388 C 106.459313 120.590296 98.8210826 120.748132 83.9624143 120.754445 L 36.7695996 120.754445 C 21.9097313 120.748132 14.2679221 120.590296 8.85139244 116.644388 C 7.03269316 115.312645 5.43276749 113.705464 4.10926658 111.880758 C 0.328713998 106.685207 0.0262697916 99.4537532 0.00207425505 85.7825034 L 0.00059369082 84.5773604 C 0.000437841954 84.3737623 0.000320955304 84.1687847 0.000233290317 83.9624143 L 0.000223044934 36.8131033 C 0.000307294794 36.6090623 0.000419627941 36.4063814 0.00056940547 36.2050476 L 0.00199229199 35.0131077 C 0.0255822528 21.2933349 0.324388423 14.0481726 4.10926658 8.85139244 C 5.42803802 7.02881812 7.02881812 5.42803802 8.85139244 4.10926658 C 14.0431755 0.328713998 21.2777946 0.0262697916 34.9495751 0.00207425505 L 36.1547573 0.00059369082 C 36.3583608 0.000437841954 36.5633431 0.000320955304 36.7697176 0.000233290317 Z M 454.076697 31.8820883 C 458.675493 31.7589113 463.18498 33.166505 466.897128 35.883865 C 470.530266 38.6556349 473.218009 42.4824946 474.592459 46.8406231 C 475.934316 51.162527 476.583374 55.6696439 476.515524 60.1945561 C 476.608884 64.6085133 475.995261 69.0089704 474.697931 73.2290022 C 473.365964 77.5924012 470.716128 81.4365942 467.112168 84.2338881 C 463.326662 86.962857 458.74035 88.353882 454.076697 88.187537 C 449.440037 88.3390545 444.976298 86.419966 441.896264 82.950821 C 441.751881 82.7347578 441.589065 82.6436222 441.412938 82.684582 C 441.236811 82.7255419 441.147723 82.8811893 441.147723 83.1627882 L 441.147723 103.298647 C 441.147723 104.438355 440.510797 104.68821 439.437649 105.006673 C 439.437649 105.006673 431.45048 107.271752 430.462324 107.523655 C 429.474168 107.775558 428.75225 106.953289 428.75225 105.816654 L 428.75225 34.4441265 C 428.686006 33.9736325 428.844861 33.4993741 429.181134 33.1637054 C 429.517406 32.8280366 429.99195 32.6700344 430.462324 32.7371251 L 439.437649 32.7371251 C 439.907833 32.6709239 440.381831 32.8292179 440.717882 33.1646652 C 441.053933 33.5001125 441.213079 33.9738247 441.147723 34.4441265 L 441.147723 37.2232519 C 441.147723 37.5089468 441.235787 37.6891701 441.412938 37.7567539 C 441.590089 37.8243376 441.750857 37.723986 441.896264 37.4393151 C 444.859825 33.7787042 449.369589 31.7211599 454.076697 31.8820883 Z M 55.9234684 29.2913783 L 43.3309359 29.2921013 C 39.5824429 29.2990912 37.5566266 29.3736499 35.9883126 30.1689429 C 34.4591354 30.9524292 33.2150203 32.1969025 32.4319742 33.7263053 C 31.6357533 35.2974033 31.5611076 37.3192756 31.5541095 41.083772 L 31.5541413 83.2850401 C 31.5604386 86.3146063 31.6192139 87.9797755 32.1677833 89.3118847 C 32.9919797 91.299378 34.5711852 92.8785835 36.5586785 93.7027799 C 37.8907876 94.2513492 39.5559568 94.3101245 42.585523 94.3164219 L 44.8564567 94.3164974 C 47.9229809 94.3106025 49.5775881 94.2536192 50.9161275 93.7027799 C 52.9036208 92.8785835 54.4828263 91.299378 55.3070227 89.3118847 C 55.9214204 87.8199224 55.9214204 85.9101697 55.9214204 82.1336721 L 55.9214204 82.1336721 L 55.9234684 29.2913783 Z M 233.103463 31.8861843 C 246.425652 31.8861843 254.226113 39.1872764 256.504845 53.7894606 C 256.908432 56.6939758 257.157954 59.6178224 257.252362 62.548723 C 257.318714 63.0193124 257.16017 63.4937401 256.824222 63.829889 C 256.488274 64.1660379 256.013942 64.3248664 255.543313 64.2587965 L 222.41704 64.2587965 C 222.240501 64.2328 222.062088 64.2920028 221.936112 64.4183822 C 221.810136 64.5447616 221.751505 64.7233638 221.778066 64.8998181 C 221.72994 66.4917453 221.945854 68.0806494 222.41704 69.6020081 C 223.133265 72.0768222 224.729978 74.2041936 226.906238 75.5831692 C 229.381084 77.0825481 232.240271 77.8257303 235.131999 77.721273 C 237.528741 77.7096789 239.89002 77.1414435 242.029637 76.0613754 C 243.941857 75.0729872 245.57738 73.6232945 246.788146 71.8435355 C 247.058656 71.3242119 247.59222 70.9951088 248.177709 70.9864508 C 248.525446 70.9844272 248.863884 71.0986815 249.139241 71.3110575 L 254.267414 75.371202 C 254.688531 75.7190991 254.957125 76.2177076 255.015955 76.7607647 C 254.99625 77.1046464 254.884105 77.4368366 254.691348 77.722297 C 252.622939 81.0010465 249.705927 83.6590514 246.249524 85.4145556 C 242.439904 87.3247846 238.222436 88.2786352 233.961571 88.193681 C 228.939434 88.3688675 223.988514 86.9669542 219.803802 84.1847363 C 215.932506 81.4338508 213.033496 77.5259585 211.523769 73.023179 C 210.04305 68.7654203 209.320092 64.2810728 209.387713 59.7736937 C 209.260964 55.9622236 209.654737 52.1512767 210.558141 48.446249 C 211.758343 43.6187007 214.589237 39.3539112 218.571934 36.3733352 C 222.785263 33.3097616 227.896381 31.7315136 233.103463 31.8861843 Z M 335.925981 31.8861843 C 341.080448 31.7691318 346.148596 33.2226841 350.45751 36.0538484 C 354.323274 38.4922036 357.228831 42.1902507 358.68327 46.5231843 C 358.971703 47.5031242 359.186319 48.5032951 359.325316 49.5153009 L 359.325316 49.9484512 C 359.325316 50.7318082 358.86247 51.2274224 357.937801 51.4424615 L 349.068971 52.8320242 L 348.636845 52.8320242 C 347.881243 52.8575978 347.231762 52.3006453 347.14181 51.5499811 L 346.818228 50.1624664 C 346.277169 47.9641297 344.945099 46.0422157 343.076546 44.7639591 C 340.992313 43.2757832 338.479944 42.5072262 335.919837 42.5746554 C 333.456249 42.4990703 331.035476 43.2308398 329.026296 44.6584875 C 327.131982 46.0608349 325.790888 48.0844371 325.23751 50.3754576 C 324.425656 53.476786 324.065934 56.6791042 324.169482 59.8832612 C 324.091452 63.0812714 324.41448 66.2764558 325.131015 69.3941369 C 325.741531 71.7331444 327.090824 73.8125711 328.978168 75.3230742 C 330.972571 76.8304621 333.42558 77.6043732 335.923933 77.5144258 C 338.418745 77.5773779 340.869237 76.8474288 342.922947 75.4295698 C 344.820846 74.1252672 346.170112 72.1659141 346.711732 69.9276388 L 346.820276 69.3951609 C 346.930738 68.9736618 347.173335 68.5986405 347.512497 68.325085 C 347.866067 67.9796598 348.360992 67.8197376 348.849836 67.8929586 L 357.717642 69.2825213 C 358.644017 69.4982431 359.107205 69.9976119 359.107205 70.7806276 C 359.036434 71.6447198 358.891865 72.501173 358.675078 73.3406178 C 357.363204 77.8454986 354.433904 81.7072301 350.449318 84.1847363 C 346.103587 86.9175453 341.05001 88.3117214 335.917789 88.193681 C 330.855915 88.3186463 325.884202 86.8394265 321.71394 83.9676491 C 317.756795 81.1981191 314.826861 77.1974525 313.38066 72.5890046 C 311.100212 64.2653933 311.100212 55.4816733 313.38066 47.1580619 C 314.774619 42.5958739 317.698963 38.6538321 321.660692 35.9965046 C 325.881826 33.1960564 330.861908 31.7611238 335.925981 31.8861843 Z M 295.218041 34.1768636 C 298.241097 35.3729426 300.882245 37.3681387 302.8591 39.9491295 C 304.664044 42.3693227 305.621335 45.3167694 305.582929 48.3356574 C 305.579958 48.6981637 305.400317 49.0364233 305.101651 49.2418939 C 304.791425 49.4712802 304.420579 49.6015109 304.037594 49.6177589 L 295.655287 49.6177005 C 294.513532 49.6177005 293.945214 49.4006133 293.945214 48.973607 L 293.945214 48.3325854 C 293.910468 46.413603 292.878227 44.6514193 291.221384 43.6826192 C 288.990449 42.3258246 286.401742 41.6744542 283.794341 41.8138264 C 281.435188 41.7146546 279.092577 42.249654 277.010367 43.3631324 C 275.387102 44.1910406 274.373332 45.8674318 274.394057 47.6895159 C 274.36901 49.361486 275.332634 50.8908386 276.851647 51.589917 C 279.487608 52.8463408 282.244812 53.8307132 285.08048 54.5277617 L 287.53807 55.1718553 C 290.81298 56.1065035 294.025233 57.2481669 297.155442 58.5899542 C 299.6799 59.7000516 301.911086 61.3829072 303.672153 63.5051354 C 305.519513 65.838382 306.467579 68.7574388 306.343759 71.7308959 C 306.508344 76.4622951 304.253227 80.9520778 300.359525 83.6450904 C 296.370037 86.5286633 291.06403 87.9707911 284.441506 87.9714738 C 280.41461 88.0530783 276.407714 87.3842784 272.625616 85.9992574 C 269.570839 84.9110455 266.860743 83.0293874 264.773614 80.5475022 C 262.969456 78.3696679 261.986353 75.6279972 261.995512 72.7999478 L 261.995512 72.2674699 C 261.929236 71.7970835 262.087655 71.322871 262.423352 70.9867711 C 262.75905 70.6506711 263.233072 70.4916838 263.703538 70.5573964 L 272.246737 70.5573964 C 273.386786 70.5573964 273.95681 70.8069101 273.95681 71.3059376 L 273.95681 72.0544787 C 273.95681 73.8369145 274.935751 75.3869033 276.893631 76.7044449 C 279.114375 78.0956651 281.703218 78.784453 284.321699 78.6807573 C 286.759271 78.7882043 289.174452 78.1748814 291.265416 76.9174361 C 292.881828 76.0205084 293.899382 74.3317344 293.937022 72.483533 C 293.989659 70.9321063 293.133701 69.492177 291.74567 68.7971471 C 289.47847 67.6708558 287.096578 66.7919794 284.641186 66.1757172 L 280.581041 64.8946981 C 277.42836 64.0084692 274.353869 62.864568 271.388628 61.4745512 C 268.94566 60.3056668 266.792367 58.6094724 265.083884 56.5081702 C 263.308903 54.2024535 262.402566 51.3453183 262.523894 48.438057 C 262.377694 43.7488294 264.557753 39.2902094 268.348384 36.5259106 C 272.229329 33.5706579 277.375251 32.0926902 283.786149 32.0920075 C 287.69818 32.0114743 291.586287 32.7205559 295.218041 34.1768636 Z M 418.188683 33.0254923 C 418.508837 33.2678642 418.719549 33.6275304 418.774432 34.0253121 C 418.793889 34.16321 418.793889 34.3031567 418.774432 34.4410546 L 418.774432 85.6224268 C 418.84072 86.0925422 418.682413 86.5665018 418.346904 86.9024132 C 418.011395 87.2383245 417.537626 87.3972001 417.067431 87.3314763 L 408.091081 87.3314763 C 407.620915 87.3966709 407.147379 87.2376641 406.811841 86.9019246 C 406.476302 86.5661851 406.317579 86.0925542 406.383056 85.6224268 L 406.383056 34.4410546 C 406.268845 33.6126969 406.847137 32.8483618 407.675339 32.7330291 C 407.813307 32.7145971 407.953113 32.7145971 408.091081 32.7330291 L 417.067431 32.7330291 C 417.465181 32.6779123 417.86853 32.7831204 418.188683 33.0254923 Z M 185.346333 32.734919 C 185.431154 32.7340358 185.51596 32.7381393 185.600284 32.747365 L 204.220629 32.747365 C 204.644638 32.7454596 205.051963 32.9124217 205.352649 33.2113782 C 205.653335 33.5103347 205.822643 33.9166905 205.823183 34.3407029 L 205.823183 43.5576917 C 205.823183 44.4351721 205.112445 45.1468276 204.234965 45.1479576 L 188.363026 45.1479576 C 187.691273 45.1479576 187.138761 45.6584854 187.072321 46.3127087 L 187.065623 46.4453606 L 187.065623 85.6224268 C 187.065362 86.077926 186.883388 86.5144987 186.560054 86.8353334 C 186.23672 87.1561681 185.798749 87.3347494 185.343261 87.3315205 L 176.366912 87.3315205 C 175.425526 87.3309114 174.662523 86.5679085 174.661958 85.6265228 L 174.661958 35.2571794 C 174.661958 33.8642608 175.791142 32.734919 177.184061 32.734919 L 185.346333 32.734919 Z M 377.412159 32.7349259 C 377.498342 32.7340614 377.584509 32.7381646 377.670206 32.747365 L 396.292598 32.747365 C 396.713997 32.7470933 397.11823 32.914303 397.4163 33.2121811 C 397.71437 33.5100592 397.88184 33.9141839 397.88184 34.335583 L 397.880816 34.337631 L 397.880816 43.5617877 C 397.88136 43.9831866 397.714411 44.3875271 397.416725 44.6857894 C 397.119039 44.9840516 396.715022 45.1517822 396.293622 45.1520536 L 380.414515 45.1520536 C 379.742763 45.1520536 379.190251 45.6625813 379.123811 46.3168047 L 379.117112 46.4494566 L 379.117112 85.6224268 C 379.116547 86.5664744 378.351086 87.3314775 377.407039 87.3314775 L 368.433761 87.3314775 C 367.981225 87.3314775 367.547037 87.1526313 367.226853 86.8328316 C 366.946692 86.5530068 366.773929 86.1857687 366.735115 85.7951671 L 366.72676 85.6265228 L 366.72676 35.2571794 C 366.72789 33.8635296 367.858284 32.7349259 369.251934 32.7349259 L 377.412159 32.7349259 Z M 499.27352 20.0053815 L 499.273837 32.0920075 C 499.252175 32.2404373 499.2904 32.3913904 499.380094 32.5116221 C 499.469788 32.6318538 499.603593 32.7115032 499.752043 32.7330291 C 499.806006 32.7412162 499.860895 32.7412162 499.914858 32.7330291 L 510.278722 32.7330291 C 511.10708 32.618818 511.871415 33.1971099 511.986748 34.0253121 C 512.00518 34.1632801 512.00518 34.3030866 511.986748 34.4410546 L 511.986748 41.0622132 C 512.042175 41.4599688 511.937242 41.8634458 511.695055 42.1838007 C 511.452869 42.5041555 511.093287 42.7151192 510.695489 42.7702387 C 510.556484 42.7914952 510.415218 42.7935625 510.275651 42.7763827 L 499.914858 42.7763827 C 499.76612 42.7547541 499.614891 42.7932553 499.494603 42.8833755 C 499.374315 42.9734958 499.294872 43.1078132 499.273837 43.2566368 C 499.266675 43.3099867 499.266675 43.3640544 499.273837 43.4174042 L 499.273837 68.6333078 C 499.273837 71.4124331 499.86161 73.4075188 501.037158 74.6185649 C 502.212705 75.8296109 504.082522 76.4347926 506.646608 76.4341099 L 509.423686 76.4341099 C 509.821293 76.3783565 510.224759 76.4828757 510.545287 76.7246638 C 510.865815 76.966452 511.077134 77.3256929 511.132735 77.723321 C 511.153218 77.8628608 511.153218 78.0046436 511.132735 78.1441834 L 511.132735 85.298844 C 511.185081 85.7259164 511.065595 86.1562885 510.800573 86.4952486 C 510.53555 86.8342087 510.146709 87.0539798 509.719621 87.1061971 C 509.621408 87.1176184 509.52238 87.1203596 509.423686 87.1143891 L 504.295513 87.2229327 C 498.666948 87.2229327 494.464127 86.2429684 491.68705 84.2830399 C 488.909972 82.3231114 487.485594 78.6708587 487.413914 73.3262818 L 487.413914 43.4174042 C 487.435244 43.2685549 487.396496 43.1173338 487.306213 42.997084 C 487.215929 42.8768342 487.081525 42.7974312 486.932636 42.7763827 C 486.879359 42.7681984 486.825145 42.7681984 486.771868 42.7763827 L 481.215666 42.7763827 C 480.745392 42.8412103 480.271913 42.6819336 479.936436 42.3460541 C 479.600958 42.0101746 479.442249 41.5365049 479.50764 41.0663092 L 479.50764 34.4400306 C 479.393429 33.6116729 479.971721 32.8473378 480.799923 32.7320051 C 480.937891 32.7135731 481.077698 32.7135731 481.215666 32.7320051 L 486.771868 32.7320051 C 487.080845 32.7771737 487.368072 32.5637 487.413914 32.2548229 C 487.421084 32.2004451 487.421084 32.1453614 487.413914 32.0909835 L 487.413914 22.6405237 C 487.413914 21.5008161 487.899288 21.3144488 489.122963 20.9324982 L 497.563763 18.4144919 C 499.145661 17.9745266 499.26703 18.9168125 499.27352 20.0053815 Z M 452.158753 42.6647671 C 448.6545 42.6287958 445.429762 44.5728318 443.825473 47.6884919 C 442.187079 50.4655693 441.369589 54.5956868 441.372991 60.0788445 C 441.372991 65.6350472 442.263537 69.8737084 444.044608 72.7948279 C 445.630659 75.7333619 448.719515 77.5457852 452.058401 77.4970179 C 455.501969 77.6292109 458.756004 75.9200919 460.601601 73.009867 C 462.668025 69.874391 463.701578 65.5285517 463.702261 59.9723489 L 463.695093 59.9784929 C 463.695093 54.8503205 462.841763 50.7884694 461.135102 47.7929395 C 459.424022 44.455365 455.902861 42.443732 452.158753 42.6647671 Z M 81.8285213 29.7695844 C 73.9109974 29.7695844 67.4925761 36.1880057 67.4925761 44.1055296 C 67.4925761 52.0230535 73.9109974 58.4414748 81.8285213 58.4414748 L 81.8285213 58.4414748 L 81.8479772 58.4414748 C 85.6475683 58.4390314 89.2905522 56.9272359 91.9754443 54.238695 C 94.6603365 51.5501541 96.1671832 47.9051204 96.1644701 44.1055296 L 96.1644701 44.1055296 L 96.1610586 43.7896398 C 95.9930456 36.0179889 89.6404782 29.7695844 81.8285213 29.7695844 Z M 226.319489 44.5437999 C 224.535292 45.9176821 223.271423 47.8575405 222.735502 50.0447069 C 222.233752 51.4908319 221.946041 53.0025231 221.88149 54.5318577 C 221.808786 54.9650081 221.990033 55.1759512 222.414992 55.1759512 L 243.895357 55.1759512 C 244.205958 55.2191534 244.493016 55.0030587 244.537403 54.6926251 C 244.544565 54.6392753 244.544565 54.5852076 244.537403 54.5318577 C 244.401377 53.2390232 244.186967 51.9556421 243.895357 50.6888004 C 243.34578 48.3372891 242.008959 46.2442609 240.106572 44.7567911 C 238.053134 43.2451376 235.548123 42.4737818 233.000039 42.5685115 C 230.615817 42.4683818 228.265892 43.1632017 226.319489 44.5437999 Z M 418.298274 12.5367543 C 419.772661 14.0016945 420.566264 16.0170814 420.486554 18.0939811 C 420.560747 20.1853656 419.76907 22.2147561 418.298274 23.7034316 C 416.773675 25.1881363 414.705613 25.9805542 412.579256 25.8947832 C 410.438682 25.9745274 408.357057 25.1839904 406.809038 23.7034316 C 405.307931 22.2307781 404.493945 20.1956275 404.565463 18.0939811 C 404.488315 16.0066843 405.304342 13.9854257 406.809038 12.5367543 C 408.373081 11.0878313 410.448787 10.3198016 412.579256 10.4017225 C 414.695498 10.3131275 416.757812 11.0830338 418.298274 12.5367543 Z" stroke-linecap="round" />
</g>
</svg>

<?xml version="1.0" encoding="UTF-8" standalone="no"?>
<svg
   width="128"
   height="128"
   xml:space="preserve"
   version="1.1"
   id="svg2352"
   sodipodi:docname="rescript.svg"
   inkscape:version="1.2 (1:1.2.1+202207142221+cd75a1ee6d)"
   xmlns:inkscape="http://www.inkscape.org/namespaces/inkscape"
   xmlns:sodipodi="http://sodipodi.sourceforge.net/DTD/sodipodi-0.dtd"
   xmlns="http://www.w3.org/2000/svg"
   xmlns:svg="http://www.w3.org/2000/svg"><defs
     id="defs2356" /><sodipodi:namedview
     id="namedview2354"
     pagecolor="#ffffff"
     bordercolor="#000000"
     borderopacity="0.25"
     inkscape:showpageshadow="2"
     inkscape:pageopacity="0.0"
     inkscape:pagecheckerboard="0"
     inkscape:deskcolor="#d1d1d1"
     showgrid="false"
     inkscape:zoom="2.3063834"
     inkscape:cx="154.78779"
     inkscape:cy="6.2868991"
     inkscape:window-width="1920"
     inkscape:window-height="1019"
     inkscape:window-x="0"
     inkscape:window-y="33"
     inkscape:window-maximized="1"
     inkscape:current-layer="svg2352" /><path
     style="opacity:1;fill:#d44140;fill-rule:nonzero;stroke:none;stroke-width:1;stroke-linecap:butt;stroke-linejoin:miter;stroke-miterlimit:4;stroke-dasharray:none;stroke-dashoffset:0"
     transform="translate(3.5,3.5)"
     d="m 83.963,0 h 0.615 l 1.205,0.002 c 13.673,0.024 20.907,0.328 26.097,4.108 1.82447,1.3235117 3.43144,2.9233921 4.763,4.742 3.998,5.494 4.103,13.277 4.11,28.578 v 46.534 c -0.006,14.86 -0.164,22.502 -4.11,27.918 -1.33687,1.82008 -2.94292,3.42613 -4.763,4.763 -5.422,3.946 -13.06,4.104 -27.919,4.11 H 36.77 C 21.91,120.749 14.268,120.591 8.851,116.645 7.0323921,115.31344 5.4325117,113.70647 4.109,111.882 0.33,106.685 0.026,99.454 0.002,85.783 L 10e-4,84.577 V 36.205 L 0.002,35.013 C 0.026,21.293 0.324,14.048 4.109,8.851 5.4278231,7.0288339 7.0285558,5.4284388 8.851,4.11 14.043,0.33 21.278,0.026 34.95,0.002 L 36.155,10e-4 H 36.77 Z M 55.923,29.292 H 43.331 c -3.749,0.007 -5.774,0.082 -7.343,0.877 -1.528995,0.78345 -2.77298,2.027784 -3.556,3.557 -0.796,1.571 -0.87,3.593 -0.878,7.358 v 42.201 c 0.006,3.03 0.065,4.695 0.614,6.027 0.824153,1.987005 2.402995,3.565847 4.39,4.39 1.333,0.55 2.998,0.608 6.028,0.614 h 2.27 c 3.067,-0.005 4.722,-0.062 6.06,-0.613 1.987572,-0.824169 3.566831,-2.403428 4.391,-4.391 0.614,-1.492 0.614,-3.402 0.614,-7.178 l 0.002,-52.843 z m 25.906,0.478 c -7.918,0 -14.336,6.418 -14.336,14.336 0,7.917 6.418,14.335 14.336,14.335 h 0.019 C 89.759641,58.4355 96.168972,52.017642 96.164,44.106 L 96.161,43.79 C 95.993,36.018 89.641,29.77 81.829,29.77 Z"
     id="path2350"
     sodipodi:nodetypes="ccccccccccccccccccccccccccccccccccccccssssccs" /></svg>
